icon-themes/sifr_svg/cmd/lc_charmapcontrol.svg

<svg viewBox="0 0 24 24" xmlns="http://www.w3.org/2000/svg"><path d="m12 2c-5.5228475 0-10 3.581722-10 8 .0041794 3.226677 2.4219708 6.908379 6 8.412109v1.587891h-6v2h8v-2-1-3c-3.5289097-.683369-5.9959046-3.266521-6-6 0-3.3137085 3.581722-6 8-6s8 2.6862915 8 6c-.0029 2.734207-2.470152 5.316449-6 6v3 1 2h8v-2h-6v-1.585938c3.581133-1.503011 5.99976-5.184473 6-8.414062 0-4.418278-4.477153-8-10-8z" fill="#555753"/></svg>

<svg xmlns="http://www.w3.org/2000/svg" viewBox="0 0 24 24">
  <path
     style="fill:#555753"
     d="M 12 2 C 6.4771525 2 2 5.581722 2 10 C 2.0041794 13.226677 4.4219708 16.908379 8 18.412109 L 8 20 L 2 20 L 2 22 L 10 22 L 10 20 L 10 19 L 10 16 C 6.4710903 15.316631 4.0040954 12.733479 4 10 C 4 6.6862915 7.581722 4 12 4 C 16.418278 4 20 6.6862915 20 10 C 19.9971 12.734207 17.529848 15.316449 14 16 L 14 19 L 14 20 L 14 22 L 22 22 L 22 20 L 16 20 L 16 18.414062 C 19.581133 16.911051 21.99976 13.229589 22 10 C 22 5.581722 17.522847 2 12 2 z "
     />
</svg>
